X:1
T:Title
%%score { ( 1 4 ) | ( 2 3 ) }
L:1/8
M:6/8
K:F
V:1 treble nm="Grand Piano"
V:4 treble 
V:2 bass 
V:3 bass 
V:1
 z3 z2[Q:1/4=87] C | F2 [EG] A2 B | c2 d c2 A | F2 F FEF |[M:5/8] [CEG]-[CEG]- [CEG]3 |[M:1/8] C | %6
[M:3/4] F2 [EG] A2 B | c2 d c2 A | [EG][FA] [GB][GB] [FA][EG] |[M:5/8] F-F- F3 |[M:1/8] c | %11
[M:3/4] dd dd Bd | c6 | Gc c=B cd |[M:5/8] [Ec]-[Ec]- [Ec]3 |[M:1/8] [EB] |[M:3/4] C-[CEG] AB AB | %17
[M:7/8] c=Bc d3 d |[M:3/4] cc cc B[EG] |[M:5/8] [CF]-[CF]- [CF]3 |] %20
V:2
 z3 z2 C, | [F,A,C]2 [C,C] [F,CF]2 [G,CE] | [A,CF]2 [B,F] [A,CF]2[K:bass] [F,CF] | z3 .C3 | %4
[M:5/8] C,-C,- C,3 |[M:1/8] C, |[M:3/4] [F,A,C]2 [C,C][K:treble] [F,CF]2 [G,CE] | %7
 [A,CF]2 [B,F] [A,CF]2[K:bass] [F,CF] | [C,C][C,C] [C,C][C,C] [C,C][C,B,] | %9
[M:5/8] [F,A,C]-[F,A,C]- [F,A,C]3 |[M:1/8][K:treble] [F,A,F] | %11
[M:3/4] [B,F][B,F] [B,F][B,F] [B,DF][B,F] | [F,A,F]2 [F,A,] [F,A,]2 [F,CF] | %13
 [G,CE][K:treble][G,CE] [G,CE][G,DF] [G,CE][G,=B,F] |[M:5/8][K:bass] [C,C]-[C,C]- [C,C]3 | %15
[M:1/8] [C,C] |[M:3/4] z2[K:treble] z [G,E] z2 |[M:7/8] [A,CF]2 [A,CF] [B,F]3 [B,F] | %18
[M:3/4] [A,CF][A,CF] [A,CF][K:bass][G,CE] [G,CE][C,B,] |[M:5/8] [F,A,]-[F,A,]- [F,A,]3 |] %20
V:3
 x6 | x6 | x5[K:bass] x | [F,A,C]2 [F,A,C] [F,A,][G,B,][F,A,C] |[M:5/8] x5 |[M:1/8] x | %6
[M:3/4] x3[K:treble] x3 | x5[K:bass] x | x6 |[M:5/8] x5 |[M:1/8][K:treble] x |[M:3/4] x6 | x6 | %13
 x[K:treble] x5 |[M:5/8][K:bass] x5 |[M:1/8] x |[M:3/4] F,C,[K:treble] [F,CF]C- [F,CF][G,CE] | %17
[M:7/8] x7 |[M:3/4] x3[K:bass] x3 |[M:5/8] x5 |] %20
V:4
 x6 | x6 | x6 | x6 |[M:5/8] x5 |[M:1/8] x |[M:3/4] x6 | x6 | x6 |[M:5/8] x5 |[M:1/8] x | %11
[M:3/4] x6 | z2 F F2 A | x6 |[M:5/8] x5 |[M:1/8] x |[M:3/4] .[FA]2 z2 z2 |[M:7/8] x7 |[M:3/4] x6 | %19
[M:5/8] x5 |] %20

